packages/katcn/src/icons/svg/pathfinder-solid.svg

<svg width="24" height="25" viewBox="0 0 24 25" fill="none" xmlns="http://www.w3.org/2000/svg">
<path d="M19.3 7.71201H16.7V5.01201C16.6 3.01201 15 1.31201 12.9 1.31201H4.7C2.7 1.31201 1 3.01201 1 5.01201V13.212C1 15.312 2.7 16.912 4.7 16.912H7.3V19.512C7.3 21.612 9 23.212 11 23.212H19.2C21.3 23.212 22.9 21.512 22.9 19.512V11.312C23 9.31201 21.3 7.71201 19.3 7.71201ZM4.7 14.912C3.7 14.912 3 14.112 3 13.212V5.01201C3 4.11201 3.8 3.31201 4.7 3.31201H12.9C13.9 3.31201 14.6 4.11201 14.6 5.01201V7.61201H11.1C9 7.71201 7.4 9.31201 7.4 11.412V14.912H4.7ZM21 19.612C21 20.612 20.2 21.312 19.3 21.312H11.1C10.1 21.312 9.4 20.512 9.4 19.612V17.012H12.9C15 17.012 16.6 15.312 16.6 13.312V9.71201H19.2C20.2 9.71201 20.9 10.512 20.9 11.412V19.612H21Z" fill="black"/>
</svg>

<svg xmlns="http://www.w3.org/2000/svg" fill="none" viewBox="0 0 24 25"><path fill="#000" d="M19.3 7.712h-2.6v-2.7c-.1-2-1.7-3.7-3.8-3.7H4.7c-2 0-3.7 1.7-3.7 3.7v8.2c0 2.1 1.7 3.7 3.7 3.7h2.6v2.6c0 2.1 1.7 3.7 3.7 3.7h8.2c2.1 0 3.7-1.7 3.7-3.7v-8.2c.1-2-1.6-3.6-3.6-3.6m-14.6 7.2c-1 0-1.7-.8-1.7-1.7v-8.2c0-.9.8-1.7 1.7-1.7h8.2c1 0 1.7.8 1.7 1.7v2.6h-3.5c-2.1.1-3.7 1.7-3.7 3.8v3.5zm16.3 4.7c0 1-.8 1.7-1.7 1.7h-8.2c-1 0-1.7-.8-1.7-1.7v-2.6h3.5c2.1 0 3.7-1.7 3.7-3.7v-3.6h2.6c1 0 1.7.8 1.7 1.7v8.2z"/></svg>
